public/avatar/hat/22.svg

<svg xmlns:xlink="http://www.w3.org/1999/xlink" height="92.9" width="100.7" xmlns="http://www.w3.org/2000/svg"><use height="33.8" transform="translate(20.05 36.65)" width="35.9" xlink:href="#a"/><defs><g id="a"><path d="M7.5 8.25q-4.9 3.05-10.7 2-2.85-.55-5.3-2.05l-2.1-1-2.15-1.1 2.9.45L1.5 7.3h.45q5.35-.4 10.3-2.25l-2.4 1.6-2.35 1.6" fill-rule="evenodd" transform="translate(18.6 13.1)"/><path d="M12.55 19.7q-1.5-.65-2.5-2.6Q7.85 13 7.5 8.25l2.35-1.6q.15 2.2 1.1 3.9l.55.85-.9.1 1.2 1.6.3.55-.6.1q.85.55.8 1.65.65.4.75 1.35.05.5-.45.4.45.55.45 1.35l-.5 1.2m-30.2.25q-.75-.7-.25-2.2Q-17 15-15 12.3q2-2.75 2.25-6.2-1-10.55 3-17.05 6.15-2.2 12.65-1.45.55.35.1.55.4.25.6 1.25-.75-.3-1.1 0l1.85 2.25H3q1.8 1.1 2.5 3.25l-1.25-.65.8 2.1q.75 2.05-.7 2.05.8 1.7.5 3.1-1.2-.7-.8.9.65 2.65-1.55 2.1-.1 1.7-.55 2.8H1.5l-11.35-.75-2.9-.45 2.15 1.1.35.95-.25.5q.7.55.55 1.35l-.65 1.6-.6.35.2 1.2-.05.25-.45.55q-.65.1-1.2.45v.2l.1.85h-1.1l-.25 1.25-1.2.3q.35.8.15 1.5-.2.65-.75 1.25l-1.9.2" fill="#630" fill-rule="evenodd" transform="translate(18.6 13.1)"/><path d="M2.9-12.4q2.8.3 5.7 1.2l.1.15q3.5 7.9 3.55 16.1.05 5.6 3.65 10.35 1.5 2 .5 4.2l-3.85.1.5-1.2q0-.8-.45-1.35.5.1.45-.4-.1-.95-.75-1.35.05-1.1-.8-1.65l.6-.1-.3-.55-1.2-1.6.9-.1-.55-.85q-.95-1.7-1.1-3.9l2.4-1.6Q7.3 6.9 1.95 7.3q.45-1.1.55-2.8 2.2.55 1.55-2.1-.4-1.6.8-.9.3-1.4-.5-3.1 1.45 0 .7-2.05l-.8-2.1 1.25.65Q4.8-7.25 3-8.35h1.35L2.5-10.6q.35-.3 1.1 0-.2-1-.6-1.25.45-.2-.1-.55M-8.5 8.2l-.15 1.9q-.15 2.1-.95 4.15-.85 2.3-2.5 3.9l-1.8 1.4q-1.75 1.05-3.75.4l1.9-.2q.55-.6.75-1.25.2-.7-.15-1.5l1.2-.3.25-1.25h1.1l-.1-.85v-.2q.55-.35 1.2-.45l.45-.55.05-.25-.2-1.2.6-.35.65-1.6q.15-.8-.55-1.35l.25-.5-.35-.95 2.1 1" fill="#361b00" fill-rule="evenodd" transform="translate(18.6 13.1)"/><path d="M2.9-12.4q2.8.3 5.7 1.2l.1.15q3.5 7.9 3.55 16.1.05 5.6 3.65 10.35 1.5 2 .5 4.2l-3.85.1q-1.5-.65-2.5-2.6Q7.85 13 7.5 8.25q-4.9 3.05-10.7 2-2.85-.55-5.3-2.05l-.15 1.9q-.15 2.1-.95 4.15-.85 2.3-2.5 3.9l-1.8 1.4q-1.75 1.05-3.75.4-.75-.7-.25-2.2Q-17 15-15 12.3q2-2.75 2.25-6.2-1-10.55 3-17.05 6.15-2.2 12.65-1.45m9.35 17.45-2.4 1.6-2.35 1.6M-12.75 6.1l2.15 1.1 2.1 1" fill="none" stroke="#000" stroke-linecap="round" stroke-linejoin="round" transform="translate(18.6 13.1)"/></g></defs></svg>

<?xml version="1.0" encoding="UTF-8" standalone="no"?>
<svg xmlns:xlink="http://www.w3.org/1999/xlink" height="92.9px" width="100.7px" xmlns="http://www.w3.org/2000/svg">
  <g transform="matrix(1.0, 0.0, 0.0, 1.0, 38.65, 49.75)">
    <use height="33.8" transform="matrix(1.0, 0.0, 0.0, 1.0, -18.6, -13.1)" width="35.9" xlink:href="#shape0"/>
  </g>
  <defs>
    <g id="shape0" transform="matrix(1.0, 0.0, 0.0, 1.0, 18.6, 13.1)">
      <path d="M7.5 8.25 Q2.6 11.3 -3.2 10.25 -6.05 9.7 -8.5 8.2 L-10.6 7.2 -12.75 6.1 -9.85 6.55 1.5 7.3 1.95 7.3 Q7.3 6.9 12.25 5.05 L9.85 6.65 7.5 8.25" fill="#000000" fill-rule="evenodd" stroke="none"/>
      <path d="M12.55 19.7 Q11.05 19.05 10.05 17.1 7.85 13.0 7.5 8.25 L9.85 6.65 Q10.0 8.85 10.95 10.55 L11.5 11.4 10.6 11.5 11.8 13.1 12.1 13.65 11.5 13.75 Q12.35 14.3 12.3 15.4 12.95 15.8 13.05 16.75 13.1 17.25 12.6 17.15 13.05 17.7 13.05 18.5 L12.55 19.7 M-17.65 19.95 Q-18.4 19.25 -17.9 17.75 -17.0 15.0 -15.0 12.3 -13.0 9.55 -12.75 6.1 -13.75 -4.45 -9.75 -10.95 -3.6 -13.15 2.9 -12.4 3.45 -12.05 3.0 -11.85 3.4 -11.6 3.6 -10.6 2.85 -10.9 2.5 -10.6 L4.35 -8.35 3.0 -8.35 Q4.8 -7.25 5.5 -5.1 L4.25 -5.75 5.05 -3.65 Q5.8 -1.6 4.35 -1.6 5.15 0.1 4.85 1.5 3.65 0.8 4.05 2.4 4.7 5.05 2.5 4.5 2.4 6.2 1.95 7.3 L1.5 7.3 -9.85 6.55 -12.75 6.1 -10.6 7.2 -10.25 8.15 -10.5 8.65 Q-9.8 9.2 -9.95 10.0 L-10.6 11.6 -11.2 11.95 -11.0 13.15 -11.05 13.4 -11.5 13.95 Q-12.15 14.05 -12.7 14.4 L-12.7 14.6 -12.6 15.45 -13.7 15.45 -13.95 16.7 -15.15 17.0 Q-14.8 17.8 -15.0 18.5 -15.2 19.15 -15.75 19.75 L-17.65 19.95" fill="#663300" fill-rule="evenodd" stroke="none"/>
      <path d="M2.9 -12.4 Q5.7 -12.1 8.6 -11.2 L8.7 -11.05 Q12.2 -3.15 12.25 5.05 12.3 10.65 15.9 15.4 17.4 17.4 16.4 19.6 L12.55 19.7 13.05 18.5 Q13.05 17.7 12.6 17.15 13.1 17.25 13.05 16.75 12.95 15.8 12.3 15.4 12.35 14.3 11.5 13.75 L12.1 13.65 11.8 13.1 10.6 11.5 11.5 11.4 10.95 10.55 Q10.0 8.85 9.85 6.65 L12.25 5.05 Q7.3 6.9 1.95 7.3 2.4 6.2 2.5 4.5 4.7 5.05 4.05 2.4 3.65 0.8 4.85 1.5 5.15 0.1 4.35 -1.6 5.8 -1.6 5.05 -3.65 L4.25 -5.75 5.5 -5.1 Q4.8 -7.25 3.0 -8.35 L4.35 -8.35 2.5 -10.6 Q2.85 -10.9 3.6 -10.6 3.4 -11.6 3.0 -11.85 3.45 -12.05 2.9 -12.4 M-8.5 8.2 L-8.65 10.1 Q-8.8 12.2 -9.6 14.25 -10.45 16.55 -12.1 18.15 L-13.9 19.55 Q-15.65 20.6 -17.65 19.95 L-15.75 19.75 Q-15.2 19.15 -15.0 18.5 -14.8 17.8 -15.15 17.0 L-13.95 16.7 -13.7 15.45 -12.6 15.45 -12.7 14.6 -12.7 14.4 Q-12.15 14.05 -11.5 13.95 L-11.05 13.4 -11.0 13.15 -11.2 11.95 -10.6 11.6 -9.95 10.0 Q-9.8 9.2 -10.5 8.65 L-10.25 8.15 -10.6 7.2 -8.5 8.2" fill="#361b00" fill-rule="evenodd" stroke="none"/>
      <path d="M2.9 -12.4 Q5.7 -12.1 8.6 -11.2 L8.7 -11.05 Q12.2 -3.15 12.25 5.05 12.3 10.65 15.9 15.4 17.4 17.4 16.4 19.6 L12.55 19.7 Q11.05 19.05 10.05 17.1 7.85 13.0 7.5 8.25 2.6 11.3 -3.2 10.25 -6.05 9.7 -8.5 8.2 L-8.65 10.1 Q-8.8 12.2 -9.6 14.25 -10.45 16.55 -12.1 18.15 L-13.9 19.55 Q-15.65 20.6 -17.65 19.95 -18.4 19.25 -17.9 17.75 -17.0 15.0 -15.0 12.3 -13.0 9.55 -12.75 6.1 -13.75 -4.45 -9.75 -10.95 -3.6 -13.15 2.9 -12.4 M12.25 5.05 L9.85 6.65 7.5 8.25 M-12.75 6.1 L-10.6 7.2 -8.5 8.2" fill="none" stroke="#000000" stroke-linecap="round" stroke-linejoin="round" stroke-width="1.0"/>
    </g>
  </defs>
</svg>
